Numix-Light/16/status/indicator-keyboard-Bs-4.svg

<?xml version="1.0" encoding="UTF-8" standalone="no"?>
<svg
   xmlns:dc="http://purl.org/dc/elements/1.1/"
   xmlns:cc="http://creativecommons.org/ns#"
   xmlns:rdf="http://www.w3.org/1999/02/22-rdf-syntax-ns#"
   xmlns:svg="http://www.w3.org/2000/svg"
   xmlns="http://www.w3.org/2000/svg"
   xmlns:sodipodi="http://sodipodi.sourceforge.net/DTD/sodipodi-0.dtd"
   xmlns:inkscape="http://www.inkscape.org/namespaces/inkscape"
   viewBox="0 0 16 16"
   id="svg2"
   version="1.1"
   inkscape:version="0.91 r13725"
   sodipodi:docname="indicator-keyboard-Bs-4.svg">
  <metadata
     id="metadata14">
    <rdf:RDF>
      <cc:Work
         rdf:about="">
        <dc:format>image/svg+xml</dc:format>
        <dc:type
           rdf:resource="http://purl.org/dc/dcmitype/StillImage" />
      </cc:Work>
    </rdf:RDF>
  </metadata>
  <defs
     id="defs12" />
  <sodipodi:namedview
     pagecolor="#ffffff"
     bordercolor="#666666"
     borderopacity="1"
     objecttolerance="10"
     gridtolerance="10"
     guidetolerance="10"
     inkscape:pageopacity="0"
     inkscape:pageshadow="2"
     inkscape:window-width="640"
     inkscape:window-height="480"
     id="namedview10"
     showgrid="false"
     inkscape:zoom="14.75"
     inkscape:cx="8"
     inkscape:cy="8"
     inkscape:window-x="75"
     inkscape:window-y="34"
     inkscape:window-maximized="0"
     inkscape:current-layer="svg2" />
  <path
     style="fill:#353535;fill-opacity:1"
     d="M 1.5996094 0 C 0.71320937 2.9605947e-16 0 0.71320937 0 1.5996094 L 0 14.400391 C 2.9605947e-16 15.286791 0.71320937 16 1.5996094 16 L 14.400391 16 C 15.286791 16 16 15.286791 16 14.400391 L 16 1.5996094 C 16 0.71320937 15.286791 0 14.400391 0 L 1.5996094 0 z M 3.6953125 4.8046875 C 4.0313125 4.8046875 4.3484375 4.8327187 4.6484375 4.8867188 C 4.9544375 4.9407187 5.2212188 5.03025 5.4492188 5.15625 C 5.6772188 5.28225 5.8582344 5.4501562 5.9902344 5.6601562 C 6.1282344 5.8641563 6.1972656 6.1197812 6.1972656 6.4257812 C 6.1972656 6.7617812 6.1095469 7.0490625 5.9355469 7.2890625 C 5.7675469 7.5230625 5.5399531 7.6853906 5.2519531 7.7753906 C 5.4319531 7.8173906 5.5960938 7.8770781 5.7460938 7.9550781 C 5.8960938 8.0330781 6.0285781 8.1357187 6.1425781 8.2617188 C 6.2565781 8.3817188 6.3442969 8.5309375 6.4042969 8.7109375 C 6.4702969 8.8849375 6.5019531 9.0957969 6.5019531 9.3417969 C 6.5019531 9.9297971 6.2687812 10.379406 5.8007812 10.691406 C 5.3327812 10.997406 4.6108125 11.150391 3.6328125 11.150391 C 3.5308125 11.150391 3.4094844 11.144813 3.2714844 11.132812 C 3.1394844 11.126813 3.0014219 11.113703 2.8574219 11.095703 C 2.7194219 11.083703 2.5869375 11.068781 2.4609375 11.050781 C 2.3349375 11.026781 2.2286719 11.002516 2.1386719 10.978516 L 2.1386719 4.9765625 C 2.2466719 4.9465625 2.3660469 4.9222969 2.4980469 4.9042969 C 2.6300469 4.8802969 2.7643437 4.8616094 2.9023438 4.8496094 C 3.0463438 4.8316094 3.1844063 4.8204531 3.3164062 4.8144531 C 3.4544062 4.8084531 3.5813125 4.8046875 3.6953125 4.8046875 z M 3.6953125 5.3261719 C 3.4733125 5.3261719 3.2829531 5.3337031 3.1269531 5.3457031 C 2.9769531 5.3577031 2.852 5.372625 2.75 5.390625 L 2.75 7.5859375 L 3.9375 7.5859375 C 4.1595 7.5859375 4.3703594 7.5710156 4.5683594 7.5410156 C 4.7663594 7.5050156 4.9360781 7.4453281 5.0800781 7.3613281 C 5.2300781 7.2713281 5.3476406 7.1537656 5.4316406 7.0097656 C 5.5156406 6.8597656 5.5585938 6.6713594 5.5585938 6.4433594 C 5.5585938 6.2393594 5.5138281 6.0676875 5.4238281 5.9296875 C 5.3338281 5.7856875 5.2031563 5.668125 5.0351562 5.578125 C 4.8731563 5.488125 4.6791719 5.426625 4.4511719 5.390625 C 4.2231719 5.348625 3.9713125 5.3261719 3.6953125 5.3261719 z M 9.0390625 6.3359375 C 9.3570625 6.3359375 9.6182656 6.3620156 9.8222656 6.4160156 C 10.032265 6.4700156 10.179672 6.5185469 10.263672 6.5605469 L 10.128906 7.0820312 C 10.056906 7.0460312 9.9337654 6.9975 9.7597656 6.9375 C 9.5917656 6.8775 9.3417187 6.8476563 9.0117188 6.8476562 C 8.8797187 6.8476562 8.7547656 6.8625781 8.6347656 6.8925781 C 8.5207656 6.9165781 8.418125 6.9595312 8.328125 7.0195312 C 8.238125 7.0735312 8.1672813 7.144375 8.1132812 7.234375 C 8.0592813 7.318375 8.03125 7.4247813 8.03125 7.5507812 C 8.03125 7.6767812 8.0555156 7.7830469 8.1035156 7.8730469 C 8.1515156 7.9630469 8.2205469 8.0451875 8.3105469 8.1171875 C 8.4065469 8.1831875 8.5203437 8.2466406 8.6523438 8.3066406 C 8.7903438 8.3666406 8.9470937 8.4319062 9.1210938 8.5039062 C 9.3010937 8.5759062 9.4708125 8.6505156 9.6328125 8.7285156 C 9.8008125 8.8005156 9.948219 8.8900469 10.074219 8.9980469 C 10.200219 9.1000469 10.302859 9.2269531 10.380859 9.3769531 C 10.458859 9.5209531 10.498047 9.7037813 10.498047 9.9257812 C 10.498047 10.345781 10.339484 10.664859 10.021484 10.880859 C 9.7094846 11.096859 9.280375 11.203125 8.734375 11.203125 C 8.326375 11.203125 8.012875 11.167703 7.796875 11.095703 C 7.580875 11.029703 7.4372344 10.979359 7.3652344 10.943359 L 7.5195312 10.412109 C 7.5375313 10.424109 7.5747656 10.444609 7.6347656 10.474609 C 7.6947656 10.498609 7.7769063 10.528453 7.8789062 10.564453 C 7.9809062 10.594453 8.1002813 10.622484 8.2382812 10.646484 C 8.3822812 10.670484 8.548375 10.681641 8.734375 10.681641 C 9.070375 10.681641 9.3465 10.627531 9.5625 10.519531 C 9.7845 10.405531 9.8945312 10.217125 9.8945312 9.953125 C 9.8945312 9.827125 9.8740312 9.7189062 9.8320312 9.6289062 C 9.7960312 9.5389062 9.7325781 9.4587188 9.6425781 9.3867188 C 9.5525781 9.3147188 9.4332031 9.2456875 9.2832031 9.1796875 C 9.1392031 9.1136875 8.9581875 9.0353125 8.7421875 8.9453125 C 8.5681875 8.8733125 8.4040469 8.8005156 8.2480469 8.7285156 C 8.0920469 8.6505156 7.9539844 8.56475 7.8339844 8.46875 C 7.7139844 8.36675 7.6169219 8.2454219 7.5449219 8.1074219 C 7.4729219 7.9694219 7.4375 7.8015156 7.4375 7.6035156 C 7.4375 7.2255156 7.5793281 6.9195469 7.8613281 6.6855469 C 8.1493281 6.4515469 8.5410625 6.3359375 9.0390625 6.3359375 z M 2.75 8.1074219 L 2.75 10.564453 C 2.84 10.576453 2.9742969 10.591375 3.1542969 10.609375 C 3.3342969 10.621375 3.517125 10.628906 3.703125 10.628906 C 3.979125 10.628906 4.2459062 10.610219 4.5039062 10.574219 C 4.7679063 10.538219 4.9992656 10.472953 5.1972656 10.376953 C 5.3952656 10.280953 5.5557813 10.148469 5.6757812 9.9804688 C 5.7957813 9.8124687 5.8554687 9.5960312 5.8554688 9.3320312 C 5.8554688 9.0920313 5.8125156 8.8942813 5.7285156 8.7382812 C 5.6445156 8.5762813 5.5251406 8.449375 5.3691406 8.359375 C 5.2131406 8.263375 5.0209687 8.1981094 4.7929688 8.1621094 C 4.5709688 8.1261094 4.3209219 8.1074219 4.0449219 8.1074219 L 2.75 8.1074219 z M 12.960938 8.8417969 L 13.359375 8.8417969 L 13.359375 11.486328 L 13.861328 11.486328 L 13.861328 11.796875 L 13.359375 11.796875 L 13.359375 12.896484 L 12.984375 12.896484 L 12.984375 11.796875 L 11.148438 11.796875 L 11.148438 11.5625 C 11.218638 11.3753 11.314653 11.163688 11.439453 10.929688 C 11.568153 10.695687 11.713147 10.456638 11.873047 10.210938 C 12.032947 9.9652374 12.207331 9.7261874 12.394531 9.4921875 C 12.581731 9.2542875 12.769838 9.0367969 12.960938 8.8417969 z M 12.984375 9.2695312 C 12.847875 9.4099313 12.708759 9.5706063 12.568359 9.7539062 C 12.427959 9.9372063 12.294716 10.129225 12.166016 10.328125 C 12.041216 10.523125 11.923653 10.719069 11.814453 10.917969 C 11.705253 11.116869 11.613162 11.306928 11.539062 11.486328 L 12.984375 11.486328 L 12.984375 9.2695312 z "
     id="path4" />
</svg>

<svg xmlns="http://www.w3.org/2000/svg" viewBox="0 0 16 16">
 <path d="m 1.6 0 c -0.886 0 -1.6 0.713 -1.6 1.6 l 0 12.801 c 0 0.886 0.713 1.6 1.6 1.6 l 12.801 0 c 0.886 0 1.6 -0.713 1.6 -1.6 l 0 -12.801 c 0 -0.886 -0.713 -1.6 -1.6 -1.6 l -12.801 0 z m 2.096 4.805 c 0.336 0 0.653 0.028 0.953 0.082 c 0.306 0.054 0.573 0.144 0.801 0.27 c 0.228 0.126 0.409 0.294 0.541 0.504 c 0.138 0.204 0.207 0.46 0.207 0.766 c 0 0.336 -0.088 0.623 -0.262 0.863 c -0.168 0.234 -0.396 0.396 -0.684 0.486 c 0.18 0.042 0.344 0.102 0.494 0.18 c 0.15 0.078 0.282 0.181 0.396 0.307 c 0.114 0.12 0.202 0.269 0.262 0.449 c 0.066 0.174 0.098 0.385 0.098 0.631 c 0 0.588 -0.233 1.038 -0.701 1.35 c -0.468 0.306 -1.19 0.459 -2.168 0.459 c -0.102 0 -0.223 -0.006 -0.361 -0.018 c -0.132 -0.006 -0.27 -0.019 -0.414 -0.037 c -0.138 -0.012 -0.27 -0.027 -0.396 -0.045 c -0.126 -0.024 -0.232 -0.048 -0.322 -0.072 l 0 -6 c 0.108 -0.03 0.227 -0.054 0.359 -0.072 c 0.132 -0.024 0.266 -0.043 0.404 -0.055 c 0.144 -0.018 0.282 -0.029 0.414 -0.035 c 0.138 -0.006 0.265 -0.01 0.379 -0.01 z m 0 0.521 c -0.222 0 -0.412 0.008 -0.568 0.02 c -0.15 0.012 -0.275 0.027 -0.377 0.045 l 0 2.195 l 1.188 0 c 0.222 0 0.433 -0.015 0.631 -0.045 c 0.198 -0.036 0.368 -0.096 0.512 -0.18 c 0.15 -0.09 0.268 -0.208 0.352 -0.352 c 0.084 -0.15 0.127 -0.338 0.127 -0.566 c 0 -0.204 -0.045 -0.376 -0.135 -0.514 c -0.09 -0.144 -0.221 -0.262 -0.389 -0.352 c -0.162 -0.09 -0.356 -0.152 -0.584 -0.188 c -0.228 -0.042 -0.48 -0.064 -0.756 -0.064 z m 5.344 1.01 c 0.318 0 0.579 0.026 0.783 0.08 c 0.21 0.054 0.357 0.103 0.441 0.145 l -0.135 0.521 c -0.072 -0.036 -0.195 -0.085 -0.369 -0.145 c -0.168 -0.06 -0.418 -0.09 -0.748 -0.09 c -0.132 0 -0.257 0.015 -0.377 0.045 c -0.114 0.024 -0.217 0.067 -0.307 0.127 c -0.09 0.054 -0.161 0.125 -0.215 0.215 c -0.054 0.084 -0.082 0.19 -0.082 0.316 c 0 0.126 0.024 0.232 0.072 0.322 c 0.048 0.09 0.117 0.172 0.207 0.244 c 0.096 0.066 0.21 0.129 0.342 0.189 c 0.138 0.06 0.295 0.125 0.469 0.197 c 0.18 0.072 0.35 0.147 0.512 0.225 c 0.168 0.072 0.315 0.162 0.441 0.27 c 0.126 0.102 0.229 0.229 0.307 0.379 c 0.078 0.144 0.117 0.327 0.117 0.549 c 0 0.42 -0.159 0.739 -0.477 0.955 c -0.312 0.216 -0.741 0.322 -1.287 0.322 c -0.408 0 -0.722 -0.035 -0.938 -0.107 c -0.216 -0.066 -0.36 -0.116 -0.432 -0.152 l 0.154 -0.531 c 0.018 0.012 0.055 0.033 0.115 0.063 c 0.06 0.024 0.142 0.054 0.244 0.09 c 0.102 0.03 0.221 0.058 0.359 0.082 c 0.144 0.024 0.31 0.035 0.496 0.035 c 0.336 0 0.612 -0.054 0.828 -0.162 c 0.222 -0.114 0.332 -0.302 0.332 -0.566 c 0 -0.126 -0.021 -0.234 -0.063 -0.324 c -0.036 -0.09 -0.099 -0.17 -0.189 -0.242 c -0.09 -0.072 -0.209 -0.141 -0.359 -0.207 c -0.144 -0.066 -0.325 -0.144 -0.541 -0.234 c -0.174 -0.072 -0.338 -0.145 -0.494 -0.217 c -0.156 -0.078 -0.294 -0.164 -0.414 -0.26 c -0.12 -0.102 -0.217 -0.223 -0.289 -0.361 c -0.072 -0.138 -0.107 -0.306 -0.107 -0.504 c 0 -0.378 0.142 -0.684 0.424 -0.918 c 0.288 -0.234 0.68 -0.35 1.178 -0.35 z m -6.289 1.771 l 0 2.457 c 0.09 0.012 0.224 0.027 0.404 0.045 c 0.18 0.012 0.363 0.02 0.549 0.02 c 0.276 0 0.543 -0.019 0.801 -0.055 c 0.264 -0.036 0.495 -0.101 0.693 -0.197 c 0.198 -0.096 0.359 -0.228 0.479 -0.396 c 0.12 -0.168 0.18 -0.384 0.18 -0.648 c 0 -0.24 -0.043 -0.438 -0.127 -0.594 c -0.084 -0.162 -0.203 -0.289 -0.359 -0.379 c -0.156 -0.096 -0.348 -0.161 -0.576 -0.197 c -0.222 -0.036 -0.472 -0.055 -0.748 -0.055 l -1.295 0 z m 10.211 0.734 l 0.398 0 l 0 2.645 l 0.502 0 l 0 0.311 l -0.502 0 l 0 1.1 l -0.375 0 l 0 -1.1 l -1.836 0 l 0 -0.234 c 0.07 -0.187 0.166 -0.399 0.291 -0.633 c 0.129 -0.234 0.274 -0.473 0.434 -0.719 c 0.16 -0.246 0.334 -0.485 0.521 -0.719 c 0.187 -0.238 0.375 -0.455 0.566 -0.65 z m 0.023 0.428 c -0.136 0.14 -0.276 0.301 -0.416 0.484 c -0.14 0.183 -0.274 0.375 -0.402 0.574 c -0.125 0.195 -0.242 0.391 -0.352 0.59 c -0.109 0.199 -0.201 0.389 -0.275 0.568 l 1.445 0 l 0 -2.217 z" style="fill:#353535;fill-opacity:1"/>
</svg>
